Hatter-kde/actions/16/office-chart-bar.svg

<?xml version="1.0" encoding="UTF-8"?>
<svg viewBox="0 0 16 16" xmlns="http://www.w3.org/2000/svg">
 <defs id="defs3051">
  <style id="current-color-scheme" type="text/css">.ColorScheme-Text {
        color:#363636;
      }</style>
 </defs>
 <path class="ColorScheme-Text" d="m2 2v12h12v-1h-1v-5h-4v5h-1v-11h-4v11h-1v-11h-1zm3 1h2v10h-2v-10zm5 6h2v4h-2v-4z" fill="currentColor"/>
</svg>

<svg xmlns="http://www.w3.org/2000/svg" viewBox="0 0 16 16">
  <defs id="defs3051">
    <style type="text/css" id="current-color-scheme">
      .ColorScheme-Text {
        color:#363636;
      }
      </style>
  </defs>
 <path 
     style="fill:currentColor;fill-opacity:1;stroke:none" 
     d="M 2 2 L 2 14 L 14 14 L 14 13 L 13 13 L 13 8 L 9 8 L 9 13 L 8 13 L 8 2 L 4 2 L 4 13 L 3 13 L 3 2 L 2 2 z M 5 3 L 7 3 L 7 13 L 5 13 L 5 3 z M 10 9 L 12 9 L 12 13 L 10 13 L 10 9 z "
     class="ColorScheme-Text"/>
</svg>
